svg/black/ven.svg

<svg xmlns="http://www.w3.org/2000/svg" width="32" height="32" viewBox="0 0 32 32">
  <path fill-rule="evenodd" d="M16,32 C7.163444,32 0,24.836556 0,16 C0,7.163444 7.163444,0 16,0 C24.836556,0 32,7.163444 32,16 C32,24.836556 24.836556,32 16,32 Z M14.7383779,24.7343956 C15.2396927,25.7552015 16.689925,25.7552015 17.1912399,24.7343956 L24.9705723,8.88504082 C25.0600928,8.71490651 24.9347641,8.50895444 24.737819,8.50895444 L24.4065931,8.50895444 C24.2633603,8.50895444 24.1290795,8.58954438 24.0664152,8.71490651 L18.4624311,20.0870424 C17.9611163,21.1078483 16.510884,21.1078483 16.0095691,20.0870424 L10.387681,8.70595207 C10.3250166,8.58058994 10.1907359,8.5 10.0475031,8.5 L7.37979182,8.5 C7.10227823,8.5 6.91428516,8.79549644 7.03961387,9.0462207 L14.7383779,24.7343956 Z"/>
</svg>

<svg xmlns="http://www.w3.org/2000/svg" width="32" height="32"><path fill-rule="evenodd" d="M16 32C7.163 32 0 24.837 0 16S7.163 0 16 0s16 7.163 16 16-7.163 16-16 16zm-1.262-7.266c.502 1.021 1.952 1.021 2.453 0l7.78-15.849a.258.258 0 0 0-.233-.376h-.331a.382.382 0 0 0-.34.206l-5.605 11.372c-.5 1.02-1.951 1.02-2.452 0L10.388 8.706a.382.382 0 0 0-.34-.206H7.38a.38.38 0 0 0-.34.546l7.698 15.688z"/></svg>
